X: 0
T: What Child Is This?
Z: Traditional from Chope
Z: Copyright © 2004 by Douglas D. Anderson
Z: Released To The Public Domain
L: 1/4
M: 6/8
Q: 1/4=75
V: P1 name="Staff"
%%MIDI program 1 19
K: G
[V: P1]  d/ | d B/ A F/ | c c/ c e/ | d B/ A F/ | (G/ A/ B/) (A3/ | A3/)z/ d/ | d B/ A F/ | c c/ c e/ | d B/ A F/ | G3/ G d/ | d B/ A F/ | c c/ c e/ | d B/ A F/ | (G/ A/ B/ A3/ | A3/)z/ d/ | d B/ A F/ | c c/ c e/ | d B/ A F/ | G3/ G|]
w: What Child is this who, laid to rest On Ma- ry's lap is sleep-__ ing?_ Whom An- gels greet with an- thems sweet, While shep- herds watch are keep- ing? This, this is Christ the King, Whom shep- herds guard and An- gels sing;____ Haste, haste, to bring Him laud, The Babe, the Babe, the Son of Ma- ry.

